X:1183
T:Bishop of Chester's Jigg.
C:John Malchair's Third Collection of Tunes
F:https://www.vwml.org/record/Malchair/3619/p118
F:www.vwml.org/topics/historic-dance-and-tune-books/Malchair
Z:Eric Conrad Feb 2020
N:NB1 Added repeats.
N:NB2 Changed meter from 9/4 to 9/8
N:NB3 The MS has a bar line just before these last two notes.
N:   i.e "fcd cAF | G2F" instead of "fcd cAF G2F"
N:NB4 In the MS, the last two notes of quadruplet are beamed as a separate doublet.
N:   i.e: "f>g a/f/" instead of "f>ga/f/"
W:D.M. Ed.1696. 2d.part.p.10. % i.e. The Dancing Master.
M:9/8   % time signature denominator is unclear (9/8? 9/4?); scoring is 9/4.
L:1/8   % changed meter from 9/4 to 9/8, note lengths changed accordingly
K:F
P:A
|: "_NB1,2"F2c cAc c2A | F2c cAc d/e/fc | F2c cAc d2e | fcd cAF "_NB3"G2F :|
P:B
|: fcf fcf e2c | d>ed f>g"_NB4"a/f/ g2f | fcf fba g2f | (d/e/)fd cAF G2F :|


